; generated by PrusaSlicer 2.3.1 on 2021-08-13 at 15:33:15 UTC

; 

; external perimeters extrusion width = 0.45mm
; perimeters extrusion width = 0.45mm
; infill extrusion width = 0.45mm
; solid infill extrusion width = 0.45mm
; top infill extrusion width = 0.40mm
; first layer extrusion width = 0.42mm

M201 X500 Y500 Z100 E5000 ; sets maximum accelerations, mm/sec^2
M203 X500 Y500 Z10 E60 ; sets maximum feedrates, mm/sec
M204 P500 R1000 T500 ; sets acceleration (P, T) and retract acceleration (R), mm/sec^2
M205 X8.00 Y8.00 Z0.40 E5.00 ; sets the jerk limits, mm/sec
M205 S0 T0 ; sets the minimum extruding and travel feed rate, mm/sec
M107
;TYPE:Custom
G90 ; use absolute coordinates
M83 ; extruder relative mode
M104 S120 ; set temporary nozzle temp to prevent oozing during homing and auto bed leveling
M140 S60 ; set final bed temp
G4 S10 ; allow partial nozzle warmup
G28 ; home all axis
G1 Z50 F240
G1 X2 Y10 F3000
M104 S205 ; set final nozzle temp
M190 S60 ; wait for bed temp to stabilize
M109 S205 ; wait for nozzle temp to stabilize
G1 Z0.28 F240
G92 E0
G1 Y140 E10 F1500 ; prime the nozzle
G1 X2.3 F5000
G92 E0
G1 Y10 E10 F1200 ; prime the nozzle
G92 E0
G21 ; set units to millimeters
G90 ; use absolute coordinates
M83 ; use relative distances for extrusion
; Filament gcode
;LAYER_CHANGE
;Z:0.2
;HEIGHT:0.2
;BEFORE_LAYER_CHANGE
G92 E0
;0.2


G1 E-5.00000 F3600.000
G1 Z0.200 F9000.000
;AFTER_LAYER_CHANGE
;0.2
G1 X14.495 Y50.659
G1 E5.00000 F2400.000
M204 S500
;TYPE:Skirt
;WIDTH:0.42
G1 F1200.000
G1 X15.082 Y49.683 E0.03570
G1 X42.368 Y20.284 E1.25764
G1 X42.886 Y19.850 E0.02117
G1 X43.476 Y19.530 E0.02103
G1 X44.122 Y19.332 E0.02117
G1 X44.789 Y19.267 E0.02103
G1 X45.412 Y19.326 E0.01962
G1 X46.018 Y19.500 E0.01976
G1 X46.576 Y19.781 E0.01962
G1 X47.074 Y20.161 E0.01962
G1 X215.657 Y176.637 E7.21183
G1 X216.063 Y177.089 E0.01905
G1 X216.575 Y178.080 E0.03500
G1 X216.736 Y179.185 E0.03500
G1 X216.528 Y180.282 E0.03500
G1 X215.973 Y181.251 E0.03500
G1 X188.688 Y210.657 E1.25778
G1 X188.239 Y211.060 E0.01891
G1 X187.208 Y211.584 E0.03626
G1 X186.637 Y211.707 E0.01834
G1 X186.057 Y211.730 E0.01820
G1 X184.928 Y211.478 E0.03626
G1 X184.408 Y211.209 E0.01834
G1 X183.947 Y210.857 E0.01820
G1 X15.343 Y54.363 E7.21269
G1 X14.937 Y53.911 E0.01905
G1 X14.418 Y52.898 E0.03570
G1 X14.265 Y51.774 E0.03556
G1 X14.483 Y50.718 E0.03382
G1 E-3.50000 F3600.000
;WIPE_START
G1 F7200.000
G1 X15.082 Y49.683 E-0.56781
G1 X16.310 Y48.361 E-0.85719
;WIPE_END
G1 E-0.07500 F3600.000
G1 X18.611 Y51.852 F9000.000
G1 E5.00000 F2400.000
;TYPE:Perimeter
G1 F1200.000
G1 X44.820 Y23.615 E1.20795
G1 X212.389 Y179.148 E7.16840
G1 X186.180 Y207.385 E1.20795
G1 X18.655 Y51.893 E7.16652
G1 X18.078 Y51.872 F9000.000
;TYPE:External perimeter
G1 F1200.000
G1 X44.801 Y23.082 E1.23160
G1 X212.922 Y179.128 E7.19205
G1 X186.199 Y207.918 E1.23160
G1 X18.122 Y51.912 E7.19017
G1 X18.453 Y51.732 F9000.000
G1 E-3.50000 F3600.000
;WIPE_START
G1 F7200.000
G1 X20.160 Y49.711 E-1.42500
;WIPE_END
G1 E-0.07500 F3600.000
G1 X201.462 Y169.160 F9000.000
G1 E5.00000 F2400.000
;TYPE:Solid infill
;WIDTH:0.420449
G1 F1200.000
G1 X211.736 Y179.435 E0.45614
G1 X211.479 Y179.712 E0.01186
G1 X197.251 Y165.484 E0.63165
G1 X189.818 Y158.584 E0.31839
G1 X211.222 Y179.989 E0.95026
G1 X210.965 Y180.266 E0.01186
G1 X182.384 Y151.684 E1.26887
G1 X174.950 Y144.784 E0.31839
G1 X210.708 Y180.543 E1.58749
G1 X210.451 Y180.820 E0.01186
G1 X167.516 Y137.884 E1.90610
G1 X160.082 Y130.984 E0.31839
G1 X210.194 Y181.097 E2.22471
G1 X209.937 Y181.373 E0.01186
G1 X152.648 Y124.084 E2.54333
G1 X145.214 Y117.184 E0.31839
G1 X209.680 Y181.650 E2.86194
G1 X209.423 Y181.927 E0.01186
G1 X137.780 Y110.284 E3.18055
G1 X130.347 Y103.384 E0.31839
G1 X209.166 Y182.204 E3.49917
G1 X208.909 Y182.481 E0.01186
G1 X122.913 Y96.484 E3.81778
G1 X115.479 Y89.584 E0.31839
G1 X208.652 Y182.758 E4.13639
G1 X208.395 Y183.035 E0.01186
G1 X108.045 Y82.684 E4.45501
G1 X100.611 Y75.784 E0.31839
G1 X208.138 Y183.312 E4.77362
G1 X207.881 Y183.589 E0.01186
G1 X93.177 Y68.884 E5.09223
G1 X85.743 Y61.985 E0.31839
G1 X207.624 Y183.865 E5.41085
G1 X207.367 Y184.142 E0.01186
G1 X78.309 Y55.085 E5.72946
G1 X70.876 Y48.185 E0.31839
G1 X207.110 Y184.419 E6.04807
G1 X206.853 Y184.696 E0.01186
G1 X63.442 Y41.285 E6.36669
G1 X56.008 Y34.385 E0.31839
G1 X206.596 Y184.973 E6.68530
G1 X206.339 Y185.250 E0.01186
G1 X48.574 Y27.485 E7.00391
G1 X44.835 Y24.014 E0.16013
G1 X44.707 Y24.152 E0.00589
G1 X206.082 Y185.527 E7.16416
G1 X205.825 Y185.804 E0.01186
G1 X44.450 Y24.429 E7.16416
G1 X44.193 Y24.706 E0.01186
G1 X205.568 Y186.081 E7.16416
G1 X205.311 Y186.358 E0.01186
G1 X43.936 Y24.983 E7.16416
G1 X43.679 Y25.260 E0.01186
G1 X205.054 Y186.634 E7.16416
G1 X204.797 Y186.911 E0.01186
G1 X43.422 Y25.537 E7.16416
G1 X43.165 Y25.813 E0.01186
G1 X204.540 Y187.188 E7.16416
G1 X204.283 Y187.465 E0.01186
G1 X42.908 Y26.090 E7.16416
G1 X42.651 Y26.367 E0.01186
G1 X204.026 Y187.742 E7.16416
G1 X203.769 Y188.019 E0.01186
G1 X42.394 Y26.644 E7.16416
G1 X42.137 Y26.921 E0.01186
G1 X203.512 Y188.296 E7.16416
G1 X203.255 Y188.573 E0.01186
G1 X41.880 Y27.198 E7.16416
G1 X41.623 Y27.475 E0.01186
G1 X202.998 Y188.850 E7.16416
G1 X202.741 Y189.127 E0.01186
G1 X41.366 Y27.752 E7.16416
G1 X41.109 Y28.029 E0.01186
G1 X202.484 Y189.403 E7.16416
G1 X202.227 Y189.680 E0.01186
G1 X40.852 Y28.306 E7.16416
G1 X40.595 Y28.582 E0.01186
G1 X201.970 Y189.957 E7.16416
G1 X201.713 Y190.234 E0.01186
G1 X40.338 Y28.859 E7.16416
G1 X40.081 Y29.136 E0.01186
G1 X201.456 Y190.511 E7.16416
G1 X201.199 Y190.788 E0.01186
G1 X39.824 Y29.413 E7.16416
G1 X39.567 Y29.690 E0.01186
G1 X200.942 Y191.065 E7.16416
G1 X200.685 Y191.342 E0.01186
G1 X39.310 Y29.967 E7.16416
G1 X39.053 Y30.244 E0.01186
G1 X200.428 Y191.619 E7.16416
G1 X200.171 Y191.895 E0.01186
G1 X38.796 Y30.521 E7.16416
G1 X38.539 Y30.798 E0.01186
G1 X199.914 Y192.172 E7.16416
G1 X199.657 Y192.449 E0.01186
G1 X38.282 Y31.075 E7.16416
G1 X38.025 Y31.351 E0.01186
G1 X199.400 Y192.726 E7.16416
G1 X199.143 Y193.003 E0.01186
G1 X37.768 Y31.628 E7.16416
G1 X37.511 Y31.905 E0.01186
G1 X198.886 Y193.280 E7.16416
G1 X198.629 Y193.557 E0.01186
G1 X37.254 Y32.182 E7.16416
G1 X36.997 Y32.459 E0.01186
G1 X198.372 Y193.834 E7.16416
G1 X198.115 Y194.111 E0.01186
G1 X36.740 Y32.736 E7.16416
G1 X36.483 Y33.013 E0.01186
G1 X197.858 Y194.388 E7.16416
G1 X197.601 Y194.664 E0.01186
G1 X36.226 Y33.290 E7.16416
G1 X35.969 Y33.567 E0.01186
G1 X197.344 Y194.941 E7.16416
G1 X197.087 Y195.218 E0.01186
G1 X35.712 Y33.843 E7.16416
G1 X35.455 Y34.120 E0.01186
G1 X196.830 Y195.495 E7.16416
G1 X196.573 Y195.772 E0.01186
G1 X35.198 Y34.397 E7.16416
G1 X34.941 Y34.674 E0.01186
G1 X196.316 Y196.049 E7.16416
G1 X196.059 Y196.326 E0.01186
G1 X34.684 Y34.951 E7.16416
G1 X34.427 Y35.228 E0.01186
G1 X195.802 Y196.603 E7.16416
G1 X195.545 Y196.880 E0.01186
G1 X34.170 Y35.505 E7.16416
G1 X33.913 Y35.782 E0.01186
G1 X195.288 Y197.157 E7.16416
G1 X195.031 Y197.433 E0.01186
G1 X33.656 Y36.059 E7.16416
G1 X33.399 Y36.336 E0.01186
G1 X194.774 Y197.710 E7.16416
G1 X194.517 Y197.987 E0.01186
G1 X33.142 Y36.612 E7.16416
G1 X32.885 Y36.889 E0.01186
G1 X194.260 Y198.264 E7.16416
G1 X194.003 Y198.541 E0.01186
G1 X32.628 Y37.166 E7.16416
G1 X32.371 Y37.443 E0.01186
G1 X193.746 Y198.818 E7.16416
G1 X193.489 Y199.095 E0.01186
G1 X32.114 Y37.720 E7.16416
G1 X31.857 Y37.997 E0.01186
G1 X193.232 Y199.372 E7.16416
G1 X192.975 Y199.649 E0.01186
G1 X31.600 Y38.274 E7.16416
G1 X31.343 Y38.551 E0.01186
G1 X192.718 Y199.925 E7.16416
G1 X192.461 Y200.202 E0.01186
G1 X31.086 Y38.828 E7.16416
G1 X30.829 Y39.105 E0.01186
G1 X192.204 Y200.479 E7.16416
G1 X191.947 Y200.756 E0.01186
G1 X30.572 Y39.381 E7.16416
G1 X30.315 Y39.658 E0.01186
G1 X191.690 Y201.033 E7.16416
G1 X191.433 Y201.310 E0.01186
G1 X30.058 Y39.935 E7.16416
G1 X29.801 Y40.212 E0.01186
G1 X191.176 Y201.587 E7.16416
G1 X190.919 Y201.864 E0.01186
G1 X29.544 Y40.489 E7.16416
G1 X29.287 Y40.766 E0.01186
G1 X190.662 Y202.141 E7.16416
G1 X190.405 Y202.418 E0.01186
G1 X29.030 Y41.043 E7.16416
G1 X28.773 Y41.320 E0.01186
G1 X190.148 Y202.694 E7.16416
G1 X189.891 Y202.971 E0.01186
G1 X28.516 Y41.597 E7.16416
G1 X28.259 Y41.873 E0.01186
G1 X189.634 Y203.248 E7.16416
G1 X189.377 Y203.525 E0.01186
G1 X28.002 Y42.150 E7.16416
G1 X27.745 Y42.427 E0.01186
G1 X189.120 Y203.802 E7.16416
G1 X188.863 Y204.079 E0.01186
G1 X27.488 Y42.704 E7.16416
G1 X27.231 Y42.981 E0.01186
G1 X188.606 Y204.356 E7.16416
G1 X188.349 Y204.633 E0.01186
G1 X26.974 Y43.258 E7.16416
G1 X26.717 Y43.535 E0.01186
G1 X188.092 Y204.910 E7.16416
G1 X187.835 Y205.187 E0.01186
G1 X26.460 Y43.812 E7.16416
G1 X26.203 Y44.089 E0.01186
G1 X187.578 Y205.463 E7.16416
G1 X187.321 Y205.740 E0.01186
G1 X25.946 Y44.366 E7.16416
G1 X25.689 Y44.642 E0.01186
G1 X187.064 Y206.017 E7.16416
G1 X186.807 Y206.294 E0.01186
G1 X25.432 Y44.919 E7.16416
G1 X25.175 Y45.196 E0.01186
G1 X186.550 Y206.571 E7.16416
G1 X186.293 Y206.848 E0.01186
G1 X24.918 Y45.473 E7.16416
G1 X24.661 Y45.750 E0.01186
G1 X182.426 Y203.515 E7.00391
G1 X174.992 Y196.615 E0.31839
G1 X24.404 Y46.027 E6.68529
G1 X24.147 Y46.304 E0.01186
G1 X167.558 Y189.715 E6.36668
G1 X160.124 Y182.815 E0.31839
G1 X23.890 Y46.581 E6.04807
G1 X23.633 Y46.858 E0.01186
G1 X152.690 Y175.915 E5.72945
G1 X145.256 Y169.015 E0.31839
G1 X23.376 Y47.135 E5.41084
G1 X23.119 Y47.411 E0.01186
G1 X137.823 Y162.115 E5.09223
G1 X130.389 Y155.215 E0.31839
G1 X22.862 Y47.688 E4.77361
G1 X22.605 Y47.965 E0.01186
G1 X122.955 Y148.315 E4.45500
G1 X115.521 Y141.415 E0.31839
G1 X22.348 Y48.242 E4.13639
G1 X22.091 Y48.519 E0.01186
G1 X108.087 Y134.516 E3.81777
G1 X100.653 Y127.616 E0.31839
G1 X21.834 Y48.796 E3.49916
G1 X21.577 Y49.073 E0.01186
G1 X93.219 Y120.716 E3.18055
G1 X85.786 Y113.816 E0.31839
G1 X21.320 Y49.350 E2.86193
G1 X21.063 Y49.627 E0.01186
G1 X78.352 Y106.916 E2.54332
G1 X70.918 Y100.016 E0.31839
G1 X20.806 Y49.903 E2.22471
G1 X20.549 Y50.180 E0.01186
G1 X63.484 Y93.116 E1.90609
G1 X56.050 Y86.216 E0.31839
G1 X20.292 Y50.457 E1.58748
G1 X20.035 Y50.734 E0.01186
G1 X48.616 Y79.316 E1.26887
G1 X41.182 Y72.416 E0.31839
G1 X19.778 Y51.011 E0.95025
G1 X19.521 Y51.288 E0.01186
G1 X33.748 Y65.516 E0.63164
G1 X26.315 Y58.616 E0.31839
G1 X19.143 Y51.445 E0.31836
M106 S255
;LAYER_CHANGE
;Z:0.36
;HEIGHT:0.16
;BEFORE_LAYER_CHANGE
G92 E0
;0.36


G1 E-3.50000 F3600.000
;WIPE_START
G1 F7200.000
G1 X21.265 Y53.566 E-1.42500
;WIPE_END
G1 E-0.07500 F3600.000
G1 Z0.360 F9000.000
;AFTER_LAYER_CHANGE
;0.36
M104 S200 ; set temperature
G1 X14.418 Y52.898
G1 E5.00000 F2400.000
;TYPE:Skirt
;WIDTH:0.42
G1 X14.265 Y51.774 E0.02910
G1 X14.495 Y50.659 E0.02921
G1 X15.082 Y49.683 E0.02921
G1 X42.368 Y20.284 E1.02902
G1 X42.886 Y19.850 E0.01733
G1 X43.476 Y19.530 E0.01721
G1 X44.122 Y19.332 E0.01733
G1 X44.789 Y19.267 E0.01721
G1 X45.412 Y19.326 E0.01605
G1 X46.018 Y19.500 E0.01617
G1 X46.576 Y19.781 E0.01605
G1 X47.074 Y20.161 E0.01605
G1 X215.657 Y176.637 E5.90081
G1 X216.063 Y177.089 E0.01559
G1 X216.575 Y178.080 E0.02864
G1 X216.736 Y179.185 E0.02864
G1 X216.528 Y180.282 E0.02864
G1 X215.973 Y181.251 E0.02864
G1 X188.688 Y210.657 E1.02913
G1 X188.239 Y211.060 E0.01547
G1 X187.208 Y211.584 E0.02967
G1 X186.637 Y211.707 E0.01501
G1 X186.057 Y211.730 E0.01489
G1 X184.928 Y211.478 E0.02967
G1 X184.408 Y211.209 E0.01501
G1 X183.947 Y210.857 E0.01489
G1 X15.343 Y54.363 E5.90151
G1 X14.937 Y53.911 E0.01559
G1 X14.445 Y52.951 E0.02767
G1 E-3.50000 F3600.000
;WIPE_START
G1 F7200.000
G1 X14.265 Y51.774 E-0.56569
G1 X14.495 Y50.659 E-0.54085
G1 X14.841 Y50.084 E-0.31846
;WIPE_END
G1 E-0.07500 F3600.000
G1 X18.668 Y51.722 F9000.000
G1 E5.00000 F2400.000
;TYPE:Perimeter
;WIDTH:0.45
G1 X44.695 Y23.681 E1.05785
G1 X212.332 Y179.278 E6.32409
G1 X186.305 Y207.319 E1.05785
G1 X18.712 Y51.763 E6.32243
G1 X18.081 Y51.744 F9000.000
;TYPE:External perimeter
G1 F1500.000
G1 X44.674 Y23.094 E1.08084
G1 X212.919 Y179.256 E6.34707
G1 X186.326 Y207.906 E1.08084
G1 X18.125 Y51.785 E6.34541
G1 X18.456 Y51.605 F9000.000
G1 E-3.50000 F3600.000
;WIPE_START
G1 F7200.000
G1 X20.162 Y49.583 E-1.42500
;WIPE_END
G1 E-0.07500 F3600.000
G1 X185.856 Y206.732 F9000.000
G1 E5.00000 F2400.000
;TYPE:Solid infill
;WIDTH:0.450583
G1 X193.763 Y198.825 E0.30964
G1 X201.371 Y190.629 E0.30964
G1 X185.683 Y206.317 E0.61431
G1 X185.378 Y206.033 E0.01153
G1 X208.978 Y182.432 E0.92416
G1 X211.891 Y179.294 E0.11856
G1 X211.703 Y179.119 E0.00712
G1 X185.072 Y205.750 E1.04280
G1 X184.767 Y205.466 E0.01153
G1 X211.398 Y178.836 E1.04280
G1 X211.092 Y178.552 E0.01153
G1 X184.462 Y205.183 E1.04280
G1 X184.156 Y204.900 E0.01153
G1 X210.787 Y178.269 E1.04280
G1 X210.482 Y177.986 E0.01153
G1 X183.851 Y204.616 E1.04280
G1 X183.546 Y204.333 E0.01153
G1 X210.176 Y177.702 E1.04280
G1 X209.871 Y177.419 E0.01153
G1 X183.241 Y204.050 E1.04280
G1 X182.935 Y203.766 E0.01153
G1 X209.566 Y177.136 E1.04280
G1 X209.260 Y176.852 E0.01153
G1 X182.630 Y203.483 E1.04280
G1 X182.325 Y203.199 E0.01153
G1 X208.955 Y176.569 E1.04280
G1 X208.650 Y176.286 E0.01153
G1 X182.019 Y202.916 E1.04280
G1 X181.714 Y202.633 E0.01153
G1 X208.345 Y176.002 E1.04280
G1 X208.039 Y175.719 E0.01153
G1 X181.409 Y202.349 E1.04280
G1 X181.103 Y202.066 E0.01153
G1 X207.734 Y175.435 E1.04280
G1 X207.429 Y175.152 E0.01153
G1 X180.798 Y201.783 E1.04280
G1 X180.493 Y201.499 E0.01153
G1 X207.123 Y174.869 E1.04280
G1 X206.818 Y174.585 E0.01153
G1 X180.188 Y201.216 E1.04280
G1 X179.882 Y200.933 E0.01153
G1 X206.513 Y174.302 E1.04280
G1 X206.208 Y174.019 E0.01153
G1 X179.577 Y200.649 E1.04280
G1 X179.272 Y200.366 E0.01153
G1 X205.902 Y173.735 E1.04280
G1 X205.597 Y173.452 E0.01153
G1 X178.966 Y200.082 E1.04280
G1 X178.661 Y199.799 E0.01153
G1 X205.292 Y173.169 E1.04280
G1 X204.986 Y172.885 E0.01153
G1 X178.356 Y199.516 E1.04280
G1 X178.051 Y199.232 E0.01153
G1 X204.681 Y172.602 E1.04280
G1 X204.376 Y172.318 E0.01153
G1 X177.745 Y198.949 E1.04280
G1 X177.440 Y198.666 E0.01153
G1 X204.070 Y172.035 E1.04280
G1 X203.765 Y171.752 E0.01153
G1 X177.135 Y198.382 E1.04280
G1 X176.829 Y198.099 E0.01153
G1 X203.460 Y171.468 E1.04280
G1 X203.155 Y171.185 E0.01153
G1 X176.524 Y197.815 E1.04280
G1 X176.219 Y197.532 E0.01153
G1 X202.849 Y170.902 E1.04280
G1 X202.544 Y170.618 E0.01153
G1 X175.913 Y197.249 E1.04280
G1 X175.608 Y196.965 E0.01153
G1 X202.239 Y170.335 E1.04280
G1 X201.933 Y170.051 E0.01153
G1 X175.303 Y196.682 E1.04280
G1 X174.998 Y196.399 E0.01153
G1 X201.628 Y169.768 E1.04280
G1 X201.323 Y169.485 E0.01153
G1 X174.692 Y196.115 E1.04280
G1 X174.387 Y195.832 E0.01153
G1 X201.018 Y169.201 E1.04280
G1 X200.712 Y168.918 E0.01153
G1 X174.082 Y195.549 E1.04280
G1 X173.776 Y195.265 E0.01153
G1 X200.407 Y168.635 E1.04280
G1 X200.102 Y168.351 E0.01153
G1 X173.471 Y194.982 E1.04280
G1 X173.166 Y194.698 E0.01153
G1 X199.796 Y168.068 E1.04280
G1 X199.491 Y167.785 E0.01153
G1 X172.860 Y194.415 E1.04280
G1 X172.555 Y194.132 E0.01153
G1 X199.186 Y167.501 E1.04280
G1 X198.880 Y167.218 E0.01153
G1 X172.250 Y193.848 E1.04280
G1 X171.945 Y193.565 E0.01153
G1 X198.575 Y166.934 E1.04280
G1 X198.270 Y166.651 E0.01153
G1 X171.639 Y193.282 E1.04280
G1 X171.334 Y192.998 E0.01153
G1 X197.965 Y166.368 E1.04280
G1 X197.659 Y166.084 E0.01153
G1 X171.029 Y192.715 E1.04280
G1 X170.723 Y192.431 E0.01153
G1 X197.354 Y165.801 E1.04280
G1 X197.049 Y165.518 E0.01153
G1 X170.418 Y192.148 E1.04280
G1 X170.113 Y191.865 E0.01153
G1 X196.743 Y165.234 E1.04280
G1 X196.438 Y164.951 E0.01153
G1 X169.808 Y191.581 E1.04280
G1 X169.502 Y191.298 E0.01153
G1 X196.133 Y164.667 E1.04280
G1 X195.828 Y164.384 E0.01153
G1 X169.197 Y191.015 E1.04280
G1 X168.892 Y190.731 E0.01153
G1 X195.522 Y164.101 E1.04280
G1 X195.217 Y163.817 E0.01153
G1 X168.586 Y190.448 E1.04280
G1 X168.281 Y190.165 E0.01153
G1 X194.912 Y163.534 E1.04280
G1 X194.606 Y163.251 E0.01153
G1 X167.976 Y189.881 E1.04280
G1 X167.670 Y189.598 E0.01153
G1 X194.301 Y162.967 E1.04280
G1 X193.996 Y162.684 E0.01153
G1 X167.365 Y189.314 E1.04280
G1 X167.060 Y189.031 E0.01153
G1 X193.690 Y162.401 E1.04280
G1 X193.385 Y162.117 E0.01153
G1 X166.755 Y188.748 E1.04280
