;FLAVOR:Marlin
;TIME:4709
;Filament used: 1.05429m
;Layer height: 0.1
;MINX:102.531
;MINY:99.445
;MINZ:0.2
;MAXX:132.697
;MAXY:135.546
;MAXZ:30.8
;Generated with Cura_SteamEngine 4.1.0
M140 S60
M105
M190 S60
M104 S200
M105
M109 S200
M82 ;absolute extrusion mode
; Ender 3 Custom Start G-code
G28 ; Home all axes
G92 E0 ; Reset Extruder
G1 Z2.0 F3000 ; Move Z Axis up little to prevent scratching of Heat Bed
G1 X0.1 Y20 Z0.3 F5000.0 ; Move to start position
G1 X0.1 Y200.0 Z0.3 F1500.0 E15 ; Draw the first line
G1 X0.4 Y200.0 Z0.3 F5000.0 ; Move to side a little
G1 X0.4 Y20 Z0.3 F1500.0 E30 ; Draw the second line
G92 E0 ; Reset Extruder
G1 Z2.0 F3000 ; Move Z Axis up little to prevent scratching of Heat Bed
; End of custom start GCode
G92 E0
G92 E0
G1 F2400 E-5
;LAYER_COUNT:307
;LAYER:0
M107
M204 S500
M205 X10 Y10
G0 F3600 X106.357 Y101.278 Z0.2
;TYPE:SKIRT
G1 F2400 E0
G1 F1800 X106.902 Y100.815 E0.02378
G1 X107.495 Y100.415 E0.04758
G1 X108.129 Y100.085 E0.07135
G1 X108.797 Y99.827 E0.09517
G1 X109.488 Y99.645 E0.11893
G1 X110.196 Y99.542 E0.14273
G1 X111.063 Y99.523 E0.17157
G1 X113.644 Y99.642 E0.25751
G1 X116.298 Y99.692 E0.3458
G1 X118.962 Y99.667 E0.4344
G1 X122.322 Y99.527 E0.54626
G1 X123.692 Y99.447 E0.5919
G1 X124.407 Y99.445 E0.61568
G1 X125.118 Y99.523 E0.63947
G1 X125.816 Y99.68 E0.66327
G1 X126.492 Y99.914 E0.68706
G1 X127.138 Y100.221 E0.71085
G1 X127.745 Y100.599 E0.73463
G1 X128.306 Y101.042 E0.75841
G1 X128.815 Y101.545 E0.78221
G1 X129.183 Y101.992 E0.80146
G1 X129.352 Y102.217 E0.81082
G1 X129.481 Y102.395 E0.81814
G1 X130.676 Y104.105 E0.88752
G1 X130.727 Y104.179 E0.89051
G1 X131.14 Y104.788 E0.91498
G1 X131.508 Y105.401 E0.93877
G1 X131.805 Y106.052 E0.96256
G1 X132.027 Y106.732 E0.98636
G1 X132.172 Y107.432 E1.01013
G1 X132.243 Y108.364 E1.04122
G1 X132.248 Y110.297 E1.10551
G1 X132.305 Y113.024 E1.19623
G1 X132.432 Y115.639 E1.28331
G1 X132.596 Y117.827 E1.35629
G1 X132.675 Y118.738 E1.3867
G1 X132.697 Y119.453 E1.41049
G1 X132.639 Y120.166 E1.43429
G1 X132.508 Y120.843 E1.45722
G1 X131.963 Y123.024 E1.53199
G1 X131.798 Y123.758 E1.55701
G1 X131.767 Y123.888 E1.56146
G1 X131.697 Y124.172 E1.57119
G1 X131.487 Y124.855 E1.59495
G1 X131.203 Y125.512 E1.61876
G1 X130.984 Y125.911 E1.6339
G1 X129.563 Y128.3 E1.72635
G1 X128.433 Y130.313 E1.80313
G1 X127.997 Y131.111 E1.83338
G1 X127.62 Y131.718 E1.85714
G1 X127.177 Y132.28 E1.88094
G1 X126.925 Y132.549 E1.8932
G1 X126.678 Y132.798 E1.90487
G1 X126.146 Y133.277 E1.92868
G1 X125.746 Y133.574 E1.94525
G1 X125.123 Y134 E1.97035
G1 X124.994 Y134.086 E1.97551
G1 X124.328 Y134.518 E2.00191
G1 X123.707 Y134.873 E2.0257
G1 X123.05 Y135.157 E2.04951
G1 X122.366 Y135.366 E2.0733
G1 X121.663 Y135.497 E2.09708
G1 X120.637 Y135.546 E2.13124
G1 X117.792 Y135.454 E2.22592
G1 X114.417 Y135.442 E2.33817
G1 X113.779 Y135.451 E2.35939
G1 X113.064 Y135.421 E2.3832
G1 X112.299 Y135.299 E2.40896
G1 X111.859 Y135.201 E2.42395
G1 X111.17 Y135.007 E2.44776
G1 X110.508 Y134.737 E2.47154
G1 X109.857 Y134.381 E2.49622
G1 X108.779 Y133.707 E2.53851
G1 X108.611 Y133.598 E2.54517
G1 X108.063 Y133.231 E2.5671
G1 X107.492 Y132.8 E2.5909
G1 X106.972 Y132.308 E2.61471
G1 X106.511 Y131.762 E2.63847
G1 X106.113 Y131.167 E2.66228
G1 X105.784 Y130.532 E2.68607
G1 X105.602 Y130.08 E2.70228
G1 X104.626 Y127.368 E2.79814
G1 X103.644 Y124.855 E2.88788
G1 X103.568 Y124.674 E2.89441
G1 X103.518 Y124.551 E2.89882
G1 X103.372 Y124.181 E2.91205
G1 X103.147 Y123.502 E2.93585
G1 X102.999 Y122.802 E2.95964
G1 X102.932 Y122.13 E2.9821
G1 X102.906 Y121.573 E3.00065
G1 X102.9 Y121.404 E3.00627
G1 X102.884 Y120.611 E3.03265
G1 X102.849 Y119.453 E3.07119
G1 X102.846 Y119.185 E3.0801
G1 X102.879 Y116.323 E3.1753
G1 X102.835 Y113.712 E3.26215
G1 X102.715 Y111.037 E3.35121
G1 X102.542 Y108.628 E3.43154
G1 X102.531 Y107.913 E3.45533
G1 X102.6 Y107.201 E3.47912
G1 X102.748 Y106.501 E3.50292
G1 X102.973 Y105.822 E3.52671
G1 X103.272 Y105.173 E3.55047
G1 X103.84 Y104.286 E3.58551
G1 X104.005 Y104.07 E3.59455
G1 X104.131 Y103.91 E3.60132
G1 X105.355 Y102.409 E3.66574
G1 X105.415 Y102.337 E3.66886
G1 X105.867 Y101.799 E3.69223
G1 X106.357 Y101.278 E3.71601
G0 F3600 X106.648 Y101.553
G1 F1800 X107.179 Y101.107 E3.73908
G1 X107.757 Y100.726 E3.7621
G1 X108.375 Y100.414 E3.78513
G1 X109.025 Y100.175 E3.80816
G1 X109.698 Y100.012 E3.8312
G1 X110.385 Y99.928 E3.85422
G1 X111.044 Y99.922 E3.87613
G1 X113.654 Y100.043 E3.96304
G1 X116.294 Y100.092 E4.05086
G1 X118.952 Y100.067 E4.13927
G1 X122.36 Y99.925 E4.25272
G1 X123.715 Y99.846 E4.29786
G1 X124.408 Y99.846 E4.32091
G1 X125.096 Y99.925 E4.34394
G1 X125.77 Y100.083 E4.36697
G1 X126.422 Y100.318 E4.39002
G1 X127.042 Y100.626 E4.41305
G1 X127.622 Y101.003 E4.43605
G1 X128.155 Y101.445 E4.45908
G1 X128.634 Y101.946 E4.48214
G1 X128.863 Y102.233 E4.49435
G1 X129.032 Y102.458 E4.50371
G1 X129.153 Y102.624 E4.51054
G1 X130.348 Y104.334 E4.57993
G1 X130.396 Y104.403 E4.58272
G1 X130.809 Y105.012 E4.6072
G1 X131.164 Y105.607 E4.63024
G1 X131.448 Y106.239 E4.65329
G1 X131.657 Y106.899 E4.67631
G1 X131.789 Y107.579 E4.69935
G1 X131.843 Y108.365 E4.72556
G1 X131.848 Y110.306 E4.79011
G1 X131.904 Y113.015 E4.88024
G1 X132.035 Y115.689 E4.96928
G1 X132.198 Y117.862 E5.04176
G1 X132.277 Y118.773 E5.07217
G1 X132.296 Y119.465 E5.0952
G1 X132.236 Y120.155 E5.11823
G1 X132.12 Y120.746 E5.13826
G1 X131.565 Y122.965 E5.21434
G1 X131.407 Y123.67 E5.23837
G1 X131.379 Y123.792 E5.24253
G1 X131.309 Y124.076 E5.25226
G1 X131.104 Y124.738 E5.27531
G1 X130.825 Y125.371 E5.29832
G1 X130.64 Y125.707 E5.31108
G1 X129.21 Y128.112 E5.40414
G1 X128.084 Y130.117 E5.48062
G1 X127.646 Y130.919 E5.51102
G1 X127.28 Y131.507 E5.53405
G1 X126.641 Y132.267 E5.56708
G1 X126.394 Y132.516 E5.57874
G1 X125.878 Y132.979 E5.6018
G1 X125.521 Y133.244 E5.61659
G1 X124.898 Y133.67 E5.64169
G1 X124.776 Y133.751 E5.64656
G1 X124.11 Y134.183 E5.67297
G1 X123.508 Y134.525 E5.69599
G1 X122.871 Y134.797 E5.71903
G1 X122.207 Y134.992 E5.74205
G1 X121.524 Y135.11 E5.7651
G1 X120.65 Y135.146 E5.7942
G1 X117.807 Y135.054 E5.8888
G1 X114.414 Y135.042 E6.00166
G1 X113.774 Y135.051 E6.02294
G1 X113.082 Y135.021 E6.04598
G1 X112.386 Y134.908 E6.06943
G1 X111.946 Y134.81 E6.08443
G1 X111.279 Y134.621 E6.10749
G1 X110.64 Y134.356 E6.13049
G1 X110.069 Y134.041 E6.15218
G1 X108.991 Y133.367 E6.19447
G1 X108.833 Y133.265 E6.20072
G1 X108.285 Y132.898 E6.22266
G1 X107.733 Y132.48 E6.24569
G1 X107.233 Y132.002 E6.2687
G1 X106.791 Y131.468 E6.29175
G1 X106.413 Y130.888 E6.31478
G1 X106.105 Y130.268 E6.3378
G1 X105.978 Y129.944 E6.34938
G1 X104.992 Y127.203 E6.44626
G1 X104.028 Y124.738 E6.5343
G1 X103.937 Y124.52 E6.54215
G1 X103.89 Y124.404 E6.54632
G1 X103.744 Y124.034 E6.55955
G1 X103.527 Y123.377 E6.58256
G1 X103.388 Y122.698 E6.60561
G1 X103.332 Y122.112 E6.62519
G1 X103.306 Y121.555 E6.64374
G1 X103.3 Y121.396 E6.64903
G1 X103.284 Y120.603 E6.67541
G1 X103.249 Y119.44 E6.71411
G1 X103.246 Y119.19 E6.72242
G1 X103.279 Y116.321 E6.81785
G1 X103.235 Y113.687 E6.90547
G1 X103.115 Y111.03 E6.99394
G1 X102.941 Y108.6 E7.07496
G1 X102.932 Y107.907 E7.09802
G1 X103.002 Y107.218 E7.12105
G1 X103.151 Y106.542 E7.14407
G1 X103.378 Y105.887 E7.16713
G1 X103.678 Y105.263 E7.19016
G1 X104.158 Y104.529 E7.21933
G1 X104.323 Y104.313 E7.22837
G1 X104.441 Y104.163 E7.23472
G1 X105.665 Y102.662 E7.29913
G1 X105.721 Y102.594 E7.30206
G1 X106.173 Y102.056 E7.32544
G1 X106.648 Y101.553 E7.34845
G0 F3600 X106.94 Y101.828
G1 F1800 X107.454 Y101.401 E7.37067
G1 X108.016 Y101.038 E7.39292
G1 X108.618 Y100.745 E7.41519
G1 X109.25 Y100.525 E7.43745
G1 X109.904 Y100.383 E7.45971
G1 X110.57 Y100.319 E7.48196
G1 X111.026 Y100.322 E7.49713
G1 X113.628 Y100.442 E7.58376
G1 X116.29 Y100.492 E7.67232
G1 X118.973 Y100.467 E7.76156
G1 X122.401 Y100.324 E7.87567
G1 X123.739 Y100.246 E7.92025
G1 X124.408 Y100.246 E7.9425
G1 X125.072 Y100.327 E7.96475
G1 X125.722 Y100.486 E7.98701
G1 X126.348 Y100.722 E8.00926
G1 X126.941 Y101.031 E8.0315
G1 X127.494 Y101.408 E8.05376
G1 X127.998 Y101.848 E8.07601
G1 X128.544 Y102.473 E8.10361
G1 X128.713 Y102.698 E8.11297
G1 X128.825 Y102.853 E8.11933
G1 X130.02 Y104.563 E8.18872
G1 X130.065 Y104.628 E8.19135
G1 X130.478 Y105.237 E8.21582
G1 X130.82 Y105.812 E8.23807
G1 X131.09 Y106.424 E8.26032
G1 X131.286 Y107.064 E8.28259
G1 X131.404 Y107.722 E8.30482
G1 X131.443 Y108.366 E8.32628
G1 X131.448 Y110.314 E8.39107
G1 X131.505 Y113.044 E8.48189
G1 X131.635 Y115.7 E8.57033
G1 X131.799 Y117.896 E8.64358
G1 X131.878 Y118.807 E8.67399
G1 X131.896 Y119.476 E8.69625
G1 X131.834 Y120.142 E8.7185
G1 X131.732 Y120.649 E8.7357
G1 X131.177 Y122.867 E8.81174
G1 X131.017 Y123.582 E8.83611
G1 X130.99 Y123.696 E8.84001
G1 X130.92 Y123.98 E8.84974
G1 X130.722 Y124.619 E8.87199
G1 X130.296 Y125.502 E8.90459
G1 X128.877 Y127.888 E8.99693
G1 X127.735 Y129.922 E9.07451
G1 X127.295 Y130.727 E9.10502
G1 X126.94 Y131.294 E9.12727
G1 X126.357 Y131.986 E9.15737
G1 X126.11 Y132.235 E9.16904
G1 X125.611 Y132.681 E9.1913
G1 X125.295 Y132.914 E9.20435
G1 X124.672 Y133.34 E9.22946
G1 X124.558 Y133.415 E9.23399
G1 X123.892 Y133.847 E9.2604
G1 X123.31 Y134.177 E9.28265
G1 X122.693 Y134.435 E9.30489
G1 X122.05 Y134.618 E9.32713
G1 X121.389 Y134.723 E9.34939
G1 X120.663 Y134.746 E9.37355
G1 X117.821 Y134.654 E9.46812
G1 X114.409 Y134.642 E9.58161
G1 X113.768 Y134.651 E9.60293
G1 X113.1 Y134.621 E9.62517
G1 X112.473 Y134.518 E9.6463
G1 X112.033 Y134.42 E9.6613
G1 X111.389 Y134.236 E9.68357
G1 X110.773 Y133.976 E9.70581
G1 X110.281 Y133.702 E9.72454
G1 X109.203 Y133.028 E9.76683
G1 X109.056 Y132.933 E9.77265
G1 X108.508 Y132.566 E9.79459
G1 X107.975 Y132.161 E9.81685
G1 X107.495 Y131.696 E9.83908
G1 X107.073 Y131.176 E9.86135
G1 X106.716 Y130.61 E9.88361
G1 X106.355 Y129.809 E9.91283
G1 X105.381 Y127.103 E10.00849
G1 X104.384 Y124.551 E10.09961
G1 X104.306 Y124.365 E10.10632
G1 X104.262 Y124.257 E10.1102
G1 X104.116 Y123.887 E10.12343
G1 X103.908 Y123.252 E10.14565
G1 X103.777 Y122.595 E10.16794
G1 X103.731 Y122.093 E10.1847
G1 X103.705 Y121.536 E10.20325
G1 X103.7 Y121.388 E10.20817
G1 X103.684 Y120.595 E10.23455
G1 X103.649 Y119.428 E10.27339
G1 X103.646 Y119.194 E10.28117
G1 X103.679 Y116.318 E10.37683
G1 X103.634 Y113.663 E10.46515
G1 X103.515 Y111.02 E10.55315
G1 X103.34 Y108.571 E10.63481
G1 X103.332 Y107.902 E10.65706
G1 X103.404 Y107.237 E10.67931
G1 X103.555 Y106.585 E10.70157
G1 X103.783 Y105.956 E10.72382
G1 X104.084 Y105.358 E10.74609
G1 X104.476 Y104.772 E10.76954
G1 X104.641 Y104.556 E10.77858
G1 X104.751 Y104.416 E10.7845
G1 X105.975 Y102.915 E10.84892
G1 X106.027 Y102.852 E10.85163
G1 X106.479 Y102.314 E10.87501
G1 X106.94 Y101.828 E10.89728
G0 F3600 X107.23 Y102.104
G1 F1800 X107.729 Y101.696 E10.91872
G1 X108.275 Y101.352 E10.94019
G1 X108.858 Y101.079 E10.9616
G1 X109.472 Y100.88 E10.98307
G1 X110.105 Y100.758 E11.00451
G1 X111.007 Y100.722 E11.03453
G1 X113.602 Y100.842 E11.12093
G1 X116.286 Y100.892 E11.21022
G1 X118.962 Y100.867 E11.29923
G1 X122.441 Y100.722 E11.41504
G1 X123.762 Y100.645 E11.45905
G1 X124.407 Y100.647 E11.4805
G1 X125.046 Y100.729 E11.50193
G1 X125.67 Y100.89 E11.52337
G1 X126.27 Y101.126 E11.54481
G1 X126.836 Y101.435 E11.56626
G1 X127.359 Y101.812 E11.5877
G1 X127.832 Y102.25 E11.60914
G1 X128.224 Y102.713 E11.62932
G1 X128.393 Y102.938 E11.63868
G1 X128.497 Y103.082 E11.64459
G1 X129.692 Y104.792 E11.71397
G1 X129.734 Y104.852 E11.71641
G1 X130.147 Y105.461 E11.74088
G1 X130.475 Y106.016 E11.76233
G1 X130.732 Y106.608 E11.78379
G1 X130.913 Y107.226 E11.80521
G1 X131.017 Y107.862 E11.82664
G1 X131.043 Y108.367 E11.84346
G1 X131.048 Y110.325 E11.90859
G1 X131.104 Y113.035 E11.99874
G1 X131.237 Y115.75 E12.08915
G1 X131.4 Y117.931 E12.16189
G1 X131.401 Y117.931 E12.16193
G1 X131.48 Y118.842 E12.19234
G1 X131.495 Y119.486 E12.21376
G1 X131.431 Y120.128 E12.23522
G1 X131.344 Y120.552 E12.24962
G1 X130.792 Y122.761 E12.32535
G1 X130.627 Y123.495 E12.35037
G1 X130.602 Y123.6 E12.35396
G1 X130.532 Y123.884 E12.36369
G1 X130.339 Y124.5 E12.38516
G1 X129.952 Y125.298 E12.41466
G1 X128.524 Y127.699 E12.50757
G1 X127.386 Y129.726 E12.58489
G1 X126.944 Y130.535 E12.61555
G1 X126.601 Y131.081 E12.637
G1 X126.073 Y131.704 E12.66416
G1 X125.826 Y131.953 E12.67582
G1 X125.344 Y132.382 E12.69729
G1 X125.069 Y132.583 E12.70862
G1 X124.446 Y133.009 E12.73372
G1 X124.341 Y133.08 E12.73793
G1 X123.675 Y133.512 E12.76434
G1 X123.113 Y133.828 E12.78578
G1 X122.517 Y134.073 E12.80721
G1 X121.895 Y134.242 E12.82865
G1 X121.256 Y134.333 E12.85012
G1 X120.676 Y134.346 E12.86941
G1 X117.836 Y134.254 E12.96392
G1 X114.405 Y134.242 E13.07804
G1 X113.762 Y134.251 E13.09943
G1 X113.118 Y134.22 E13.12087
G1 X112.56 Y134.128 E13.13968
G1 X112.12 Y134.03 E13.15467
G1 X111.5 Y133.851 E13.17614
G1 X110.908 Y133.597 E13.19756
G1 X110.493 Y133.363 E13.21341
G1 X109.415 Y132.689 E13.2557
G1 X109.278 Y132.601 E13.26111
G1 X108.73 Y132.234 E13.28305
G1 X108.218 Y131.842 E13.3045
G1 X107.758 Y131.391 E13.32592
G1 X107.357 Y130.886 E13.34737
G1 X107.022 Y130.335 E13.36882
G1 X106.731 Y129.673 E13.39287
G1 X105.747 Y126.938 E13.48954
G1 X104.766 Y124.429 E13.57914
G1 X104.675 Y124.211 E13.587
G1 X104.634 Y124.111 E13.5906
G1 X104.488 Y123.741 E13.60383
G1 X104.289 Y123.127 E13.62529
G1 X104.167 Y122.494 E13.64673
G1 X104.131 Y122.074 E13.66076
G1 X104.105 Y121.517 E13.6793
G1 X104.1 Y121.38 E13.68386
G1 X104.085 Y120.639 E13.70851
G1 X104.048 Y119.416 E13.74921
G1 X104.046 Y119.199 E13.75643
G1 X104.079 Y116.316 E13.85232
G1 X104.035 Y113.674 E13.94021
G1 X103.913 Y110.975 E14.03007
G1 X103.739 Y108.543 E14.11116
G1 X103.733 Y107.898 E14.13262
G1 X103.807 Y107.257 E14.15408
G1 X103.959 Y106.631 E14.1755
G1 X104.188 Y106.028 E14.19696
G1 X104.49 Y105.458 E14.21841
G1 X104.794 Y105.014 E14.23631
G1 X104.959 Y104.798 E14.24535
G1 X105.061 Y104.669 E14.25082
G1 X106.285 Y103.168 E14.31524
G1 X106.334 Y103.109 E14.31779
G1 X106.786 Y102.571 E14.34116
G1 X107.23 Y102.104 E14.36259
G0 F3600 X110.836 Y106.131
;TYPE:SUPPORT
G1 F1800 X112.631 Y106.587 E14.42419
G1 X112.663 Y106.834 E14.43247
G1 X112.924 Y107.245 E14.44867
G1 X113.494 Y107.612 E14.47121
G1 X113.625 Y107.805 E14.47897
G1 X113.979 Y107.999 E14.4924
G1 X114.135 Y108.325 E14.50442
G1 X114.165 Y108.418 E14.50767
G1 X115.314 Y111.133 E14.60572
G1 X115.72 Y111.436 E14.62257
G1 X119.069 Y111.819 E14.73469
G1 X119.527 Y111.543 E14.75247
G1 X120.48 Y109.132 E14.8387
G1 X120.48 Y108.74 E14.85174
G1 X120.66 Y108.408 E14.8643
G1 X120.669 Y108.357 E14.86602
G1 X120.9 Y108.118 E14.87708
G1 X121.251 Y107.618 E14.8974
G1 X121.694 Y107.399 E14.91383
G1 X121.985 Y106.994 E14.93042
G1 X122.038 Y106.599 E14.94368
G1 X123.988 Y106.055 E15.01101
G1 X125.542 Y108.28 E15.10128
G1 X125.194 Y108.403 E15.11355
G1 X124.914 Y108.746 E15.12828
G1 X123.937 Y109.145 E15.16338
G1 X123.783 Y109.397 E15.1732
G1 X120.694 Y110.394 E15.28116
G1 X120.543 Y110.996 E15.3018
G1 X123.094 Y113.638 E15.42395
G1 X123.144 Y113.885 E15.43234
G1 X123.098 Y114.674 E15.45862
G1 X123.044 Y114.952 E15.46804
G1 X123.067 Y115.081 E15.4724
G1 X122.995 Y115.339 E15.48131
G1 X122.724 Y118.502 E15.5869
G1 X123.108 Y118.926 E15.60592
G1 X125.987 Y118.992 E15.7017
G1 X126.108 Y119.282 E15.71215
G1 X125.897 Y120.017 E15.73759
G1 X125.29 Y121.106 E15.77906
G1 X125.29 Y122.52 E15.82609
G1 X124.386 Y122.894 E15.85862
G1 X123.933 Y123.424 E15.88181
G1 X123.587 Y123.581 E15.89445
G1 X121.687 Y125.477 E15.98373
G1 X121.687 Y126.041 E16.00249
G1 X122.698 Y127.051 E16.05002
G1 X122.526 Y127.361 E16.06181
G1 X122.224 Y127.933 E16.08332
G1 X122.014 Y128.143 E16.0932
G1 X120.89 Y128.891 E16.13811
G1 X120.664 Y128.544 E16.15188
G1 X120.216 Y128.314 E16.16863
G1 X119.461 Y128.347 E16.19376
G1 X119.461 Y127.29 E16.22892
G1 X119.119 Y126.87 E16.24693
G1 X116.278 Y126.294 E16.34335
G1 X115.8 Y126.546 E16.36132
G1 X114.834 Y128.83 E16.4438
G1 X113.702 Y128.861 E16.48147
G1 X113.292 Y128.768 E16.49545
G1 X111.882 Y127.853 E16.55136
G1 X114.112 Y124.25 E16.69229
G1 X113.898 Y123.693 E16.71213
G1 X110.461 Y122.685 E16.83126
G1 X109.553 Y121.779 E16.87393
