;FLAVOR:Marlin
;TIME:878
;Filament used: 0.210418m
;Layer height: 0.1
;Generated with Cura_SteamEngine 4.0.0
M140 S60
M105
M190 S60
M104 S210
M105
M109 S210
M82 ;absolute extrusion mode
; Ender 3 Custom Start G-code
G28 ; Home all axes
G92 E0 ; Reset Extruder
G1 Z2.0 F3000 ; Move Z Axis up little to prevent scratching of Heat Bed
G1 X0.1 Y20 Z0.3 F5000.0 ; Move to start position
G1 X0.1 Y200.0 Z0.3 F1500.0 E15 ; Draw the first line
G1 X0.4 Y200.0 Z0.3 F5000.0 ; Move to side a little
G1 X0.4 Y20 Z0.3 F1500.0 E30 ; Draw the second line
G92 E0 ; Reset Extruder
G1 Z2.0 F3000 ; Move Z Axis up little to prevent scratching of Heat Bed
; End of custom start GCode
G92 E0
G1 F2400 E-5
;LAYER_COUNT:2
;LAYER:0
M107
M204 S5000
M205 X30 Y30
G0 F3600 X18.856 Y18.397 Z0.2
M204 S500
M205 X20 Y20
;TYPE:SKIRT
G1 F2400 E0
G1 F900 X19.377 Y17.988 E0.01102
G1 X19.944 Y17.644 E0.02204
G1 X20.548 Y17.37 E0.03307
G1 X21.181 Y17.172 E0.0441
G1 X21.832 Y17.051 E0.05512
G1 X22.509 Y17.009 E0.0664
G1 X42.495 Y17.01 E0.39876
G1 X43.157 Y17.05 E0.40979
G1 X43.809 Y17.169 E0.42082
G1 X44.442 Y17.366 E0.43184
G1 X45.047 Y17.638 E0.44287
G1 X45.615 Y17.981 E0.45391
G1 X46.137 Y18.389 E0.46492
G1 X46.536 Y18.779 E0.4742
G1 X49.27 Y21.74 E0.54122
G1 X53.099 Y25.514 E0.63063
G1 X57.103 Y29.038 E0.71934
G1 X61.312 Y32.339 E0.80829
G1 X65.705 Y35.399 E0.89732
G1 X70.242 Y38.193 E0.98593
G1 X74.956 Y40.741 E1.07505
G1 X79.841 Y43.033 E1.16478
G1 X82.174 Y44.011 E1.20685
G1 X87.265 Y45.893 E1.29711
G1 X92.385 Y47.462 E1.38617
G1 X97.639 Y48.754 E1.47615
G1 X100.151 Y49.257 E1.51875
G1 X105.466 Y50.093 E1.60822
G1 X110.792 Y50.624 E1.69724
G1 X116.139 Y50.853 E1.78624
G1 X121.473 Y50.78 E1.87495
G1 X126.795 Y50.406 E1.96367
G1 X132.107 Y49.728 E2.05273
G1 X137.401 Y48.746 E2.14227
G1 X139.94 Y48.163 E2.18559
G1 X142.529 Y47.491 E2.23008
G1 X147.662 Y45.922 E2.31934
G1 X152.683 Y44.071 E2.40833
G1 X157.583 Y41.944 E2.49716
G1 X162.361 Y39.538 E2.58613
G1 X166.986 Y36.872 E2.6749
G1 X171.474 Y33.937 E2.76408
G1 X175.752 Y30.777 E2.85253
G1 X179.879 Y27.354 E2.9417
G1 X183.818 Y23.691 E3.03115
G1 X185.675 Y21.811 E3.0751
G1 X188.464 Y18.783 E3.14356
G1 X188.941 Y18.323 E3.15458
G1 X189.471 Y17.924 E3.16561
G1 X190.045 Y17.592 E3.17664
G1 X190.654 Y17.331 E3.18766
G1 X191.291 Y17.146 E3.19869
G1 X191.945 Y17.038 E3.20971
G1 X192.509 Y17.009 E3.2191
G1 X212.491 Y17.009 E3.5514
G1 X213.153 Y17.049 E3.56243
G1 X213.805 Y17.168 E3.57346
G1 X214.438 Y17.365 E3.58448
G1 X215.043 Y17.637 E3.59551
G1 X215.611 Y17.979 E3.60654
G1 X216.133 Y18.388 E3.61757
G1 X216.603 Y18.856 E3.6286
G1 X217.012 Y19.377 E3.63961
G1 X217.356 Y19.944 E3.65064
G1 X217.63 Y20.548 E3.66167
G1 X217.828 Y21.181 E3.6727
G1 X217.949 Y21.832 E3.68371
G1 X217.991 Y22.509 E3.69499
G1 X217.99 Y42.495 E4.02736
G1 X217.95 Y43.157 E4.03839
G1 X217.831 Y43.809 E4.04941
G1 X217.634 Y44.442 E4.06044
G1 X217.362 Y45.047 E4.07147
G1 X217.019 Y45.615 E4.0825
G1 X216.611 Y46.137 E4.09352
G1 X216.221 Y46.536 E4.1028
G1 X213.26 Y49.27 E4.16982
G1 X209.486 Y53.099 E4.25923
G1 X205.962 Y57.103 E4.34793
G1 X202.661 Y61.312 E4.43689
G1 X199.601 Y65.705 E4.52592
G1 X196.807 Y70.242 E4.61453
G1 X194.259 Y74.956 E4.70364
G1 X191.967 Y79.841 E4.79338
G1 X190.989 Y82.174 E4.83545
G1 X189.107 Y87.265 E4.92571
G1 X187.538 Y92.385 E5.01476
G1 X186.246 Y97.639 E5.10474
G1 X185.743 Y100.151 E5.14735
G1 X184.907 Y105.466 E5.23682
G1 X184.376 Y110.792 E5.32583
G1 X184.147 Y116.139 E5.41483
G1 X184.22 Y121.473 E5.50355
G1 X184.594 Y126.795 E5.59227
G1 X185.272 Y132.107 E5.68133
G1 X186.254 Y137.401 E5.77087
G1 X186.837 Y139.94 E5.81419
G1 X187.509 Y142.529 E5.85867
G1 X189.078 Y147.662 E5.94793
G1 X190.929 Y152.683 E6.03693
G1 X193.056 Y157.583 E6.12576
G1 X195.462 Y162.361 E6.21472
G1 X198.128 Y166.986 E6.3035
G1 X201.063 Y171.474 E6.39268
G1 X204.223 Y175.752 E6.48113
G1 X207.646 Y179.879 E6.57029
G1 X211.309 Y183.818 E6.65975
G1 X213.186 Y185.672 E6.70362
G1 X216.162 Y188.41 E6.77087
G1 X216.622 Y188.887 E6.78189
G1 X217.021 Y189.417 E6.79292
G1 X217.354 Y189.99 E6.80395
G1 X217.615 Y190.6 E6.81498
G1 X217.864 Y191.555 E6.83139
G1 X217.926 Y191.928 E6.83768
G1 X218 Y192.833 E6.85278
G1 X217.991 Y212.494 E7.17974
G1 X217.951 Y213.155 E7.19076
G1 X217.831 Y213.807 E7.20178
G1 X217.634 Y214.44 E7.21281
G1 X217.362 Y215.045 E7.22384
G1 X217.019 Y215.613 E7.23487
G1 X216.611 Y216.135 E7.24589
G1 X216.142 Y216.604 E7.25692
G1 X215.621 Y217.014 E7.26795
G1 X215.054 Y217.357 E7.27897
G1 X214.45 Y217.63 E7.28999
G1 X213.817 Y217.829 E7.30102
G1 X213.165 Y217.95 E7.31205
G1 X212.491 Y217.991 E7.32328
G1 X192.505 Y217.99 E7.65565
G1 X191.843 Y217.95 E7.66668
G1 X191.191 Y217.831 E7.6777
G1 X190.558 Y217.634 E7.68873
G1 X189.953 Y217.362 E7.69976
G1 X189.385 Y217.019 E7.71079
G1 X188.863 Y216.611 E7.72181
G1 X188.464 Y216.221 E7.73109
G1 X185.73 Y213.26 E7.79811
G1 X181.901 Y209.486 E7.88752
G1 X177.897 Y205.962 E7.97622
G1 X173.688 Y202.661 E8.06518
G1 X169.295 Y199.601 E8.15421
G1 X164.758 Y196.807 E8.24282
G1 X160.044 Y194.259 E8.33193
G1 X155.159 Y191.967 E8.42167
G1 X152.826 Y190.989 E8.46374
G1 X147.735 Y189.107 E8.554
G1 X142.615 Y187.538 E8.64305
G1 X137.361 Y186.246 E8.73303
G1 X134.849 Y185.743 E8.77564
G1 X129.534 Y184.907 E8.86511
G1 X124.208 Y184.376 E8.95412
G1 X118.861 Y184.147 E9.04312
G1 X113.527 Y184.22 E9.13184
G1 X108.205 Y184.594 E9.22056
G1 X102.893 Y185.272 E9.30962
G1 X97.599 Y186.254 E9.39916
G1 X95.06 Y186.837 E9.44248
G1 X92.471 Y187.509 E9.48696
G1 X87.338 Y189.078 E9.57622
G1 X82.317 Y190.929 E9.66522
G1 X77.417 Y193.056 E9.75405
G1 X72.639 Y195.462 E9.84301
G1 X68.014 Y198.128 E9.93179
G1 X63.526 Y201.063 E10.02097
G1 X59.248 Y204.223 E10.10942
G1 X55.121 Y207.646 E10.19858
G1 X51.182 Y211.309 E10.28804
G1 X49.325 Y213.189 E10.33198
G1 X46.536 Y216.217 E10.40044
G1 X46.059 Y216.677 E10.41146
G1 X45.529 Y217.076 E10.4225
G1 X44.955 Y217.408 E10.43352
G1 X44.346 Y217.669 E10.44454
G1 X43.709 Y217.854 E10.45557
G1 X43.055 Y217.962 E10.4666
G1 X42.491 Y217.991 E10.47599
G1 X22.509 Y217.991 E10.80829
G1 X21.847 Y217.951 E10.81932
G1 X21.195 Y217.832 E10.83034
G1 X20.562 Y217.635 E10.84137
G1 X19.957 Y217.363 E10.8524
G1 X19.389 Y217.021 E10.86342
G1 X18.867 Y216.612 E10.87445
G1 X18.397 Y216.144 E10.88548
G1 X17.988 Y215.623 E10.8965
G1 X17.644 Y215.056 E10.90753
G1 X17.37 Y214.452 E10.91856
G1 X17.172 Y213.819 E10.92959
G1 X17.051 Y213.168 E10.9406
G1 X17.009 Y212.491 E10.95188
G1 X17.01 Y192.505 E11.28425
G1 X17.05 Y191.843 E11.29528
G1 X17.169 Y191.191 E11.3063
G1 X17.366 Y190.558 E11.31732
G1 X17.638 Y189.953 E11.32835
G1 X17.981 Y189.385 E11.33939
G1 X18.389 Y188.863 E11.35041
G1 X18.779 Y188.464 E11.35968
G1 X21.749 Y185.721 E11.42692
G1 X25.514 Y181.901 E11.51611
G1 X29.038 Y177.897 E11.60482
G1 X32.339 Y173.688 E11.69377
G1 X35.399 Y169.295 E11.7828
G1 X38.193 Y164.758 E11.87141
G1 X40.741 Y160.044 E11.96053
G1 X43.033 Y155.159 E12.05026
G1 X44.011 Y152.826 E12.09233
G1 X45.893 Y147.735 E12.1826
G1 X47.462 Y142.615 E12.27165
G1 X48.754 Y137.361 E12.36163
G1 X49.257 Y134.849 E12.40423
G1 X50.093 Y129.534 E12.49371
G1 X50.624 Y124.208 E12.58272
G1 X50.853 Y118.861 E12.67172
G1 X50.78 Y113.527 E12.76043
G1 X50.406 Y108.205 E12.84916
G1 X49.728 Y102.893 E12.93821
G1 X48.746 Y97.599 E13.02775
G1 X48.163 Y95.06 E13.07108
G1 X47.491 Y92.471 E13.11556
G1 X45.922 Y87.338 E13.20482
G1 X44.071 Y82.317 E13.29381
G1 X41.944 Y77.417 E13.38265
G1 X39.538 Y72.639 E13.47161
G1 X36.872 Y68.014 E13.56039
G1 X33.937 Y63.526 E13.64957
G1 X30.777 Y59.248 E13.73801
G1 X27.354 Y55.121 E13.82718
G1 X23.691 Y51.182 E13.91663
G1 X21.811 Y49.325 E13.96058
G1 X18.783 Y46.536 E14.02904
G1 X18.323 Y46.059 E14.04006
G1 X17.924 Y45.529 E14.05109
G1 X17.592 Y44.955 E14.06212
G1 X17.331 Y44.346 E14.07314
G1 X17.146 Y43.709 E14.08417
G1 X17.038 Y43.055 E14.09519
G1 X17.009 Y42.491 E14.10458
G1 X17.009 Y22.509 E14.43689
G1 X17.049 Y21.847 E14.44792
G1 X17.168 Y21.195 E14.45894
G1 X17.365 Y20.562 E14.46996
G1 X17.637 Y19.957 E14.48099
G1 X17.979 Y19.389 E14.49202
G1 X18.388 Y18.867 E14.50305
G1 X18.856 Y18.397 E14.51408
M204 S5000
M205 X30 Y30
G0 F3600 X19.052 Y18.492
M204 S500
M205 X20 Y20
G1 F900 X19.57 Y18.098 E14.5249
G1 X20.133 Y17.771 E14.53573
G1 X20.731 Y17.516 E14.54654
G1 X21.357 Y17.336 E14.55737
G1 X22 Y17.234 E14.5682
G1 X22.509 Y17.209 E14.57667
G1 X42.495 Y17.21 E14.90904
G1 X43.145 Y17.25 E14.91987
G1 X43.785 Y17.369 E14.9307
G1 X44.405 Y17.566 E14.94152
G1 X44.997 Y17.838 E14.95235
G1 X45.55 Y18.179 E14.96315
G1 X46.058 Y18.587 E14.97399
G1 X46.389 Y18.914 E14.98173
G1 X49.134 Y21.887 E15.04902
G1 X52.958 Y25.657 E15.13832
G1 X56.981 Y29.196 E15.22743
G1 X61.194 Y32.501 E15.31648
G1 X65.588 Y35.561 E15.40552
G1 X70.145 Y38.368 E15.49453
G1 X74.865 Y40.919 E15.58375
G1 X79.749 Y43.211 E15.67347
G1 X82.126 Y44.207 E15.71633
G1 X87.205 Y46.084 E15.80638
G1 X92.314 Y47.65 E15.89525
G1 X97.596 Y48.949 E15.9857
G1 X100.106 Y49.452 E16.02827
G1 X105.451 Y50.292 E16.11825
G1 X110.781 Y50.824 E16.20733
G1 X116.116 Y51.052 E16.29613
G1 X121.49 Y50.979 E16.38551
G1 X126.834 Y50.603 E16.4746
G1 X132.133 Y49.927 E16.56344
G1 X137.433 Y48.943 E16.65309
G1 X140.003 Y48.353 E16.69694
G1 X142.566 Y47.688 E16.74097
G1 X147.736 Y46.108 E16.83087
G1 X152.764 Y44.255 E16.91999
G1 X157.663 Y42.127 E17.00881
G1 X162.448 Y39.719 E17.0979
G1 X167.106 Y37.034 E17.18731
G1 X171.58 Y34.108 E17.27621
G1 X175.876 Y30.935 E17.36502
G1 X180.001 Y27.512 E17.45417
G1 X183.967 Y23.825 E17.54422
G1 X185.809 Y21.959 E17.58782
G1 X188.611 Y18.918 E17.65659
G1 X189.08 Y18.467 E17.66741
G1 X189.602 Y18.078 E17.67824
G1 X190.167 Y17.755 E17.68906
G1 X190.767 Y17.503 E17.69988
G1 X191.394 Y17.328 E17.71071
G1 X192.037 Y17.23 E17.72152
G1 X192.509 Y17.209 E17.72938
G1 X212.491 Y17.209 E18.06168
G1 X213.141 Y17.249 E18.07251
G1 X213.78 Y17.368 E18.08332
G1 X214.401 Y17.565 E18.09416
G1 X214.992 Y17.836 E18.10497
G1 X215.546 Y18.178 E18.1158
G1 X216.054 Y18.585 E18.12662
G1 X216.508 Y19.052 E18.13745
G1 X216.902 Y19.57 E18.14828
G1 X217.229 Y20.133 E18.1591
G1 X217.484 Y20.731 E18.16992
G1 X217.664 Y21.357 E18.18075
G1 X217.766 Y22 E18.19157
G1 X217.791 Y22.509 E18.20005
G1 X217.79 Y42.495 E18.53242
G1 X217.75 Y43.145 E18.54325
G1 X217.631 Y43.785 E18.55407
G1 X217.434 Y44.405 E18.56489
G1 X217.162 Y44.997 E18.57573
G1 X216.821 Y45.55 E18.58653
G1 X216.413 Y46.058 E18.59737
G1 X216.086 Y46.389 E18.6051
G1 X213.113 Y49.134 E18.6724
G1 X209.343 Y52.958 E18.7617
G1 X205.804 Y56.981 E18.8508
G1 X202.499 Y61.194 E18.93985
G1 X199.439 Y65.588 E19.0289
G1 X196.632 Y70.145 E19.1179
G1 X194.081 Y74.865 E19.20713
G1 X191.789 Y79.749 E19.29685
G1 X190.793 Y82.126 E19.33971
G1 X188.916 Y87.205 E19.42976
G1 X187.35 Y92.314 E19.51862
G1 X186.051 Y97.596 E19.60908
G1 X185.548 Y100.106 E19.65165
G1 X184.708 Y105.451 E19.74163
G1 X184.176 Y110.781 E19.83071
G1 X183.948 Y116.116 E19.91951
G1 X184.021 Y121.49 E20.00889
G1 X184.397 Y126.834 E20.09798
G1 X185.073 Y132.133 E20.18682
G1 X186.057 Y137.433 E20.27646
G1 X186.647 Y140.003 E20.32031
G1 X187.312 Y142.566 E20.36435
G1 X188.892 Y147.736 E20.45425
G1 X190.745 Y152.764 E20.54336
G1 X192.873 Y157.663 E20.63219
G1 X195.281 Y162.448 E20.72127
G1 X197.966 Y167.106 E20.81068
G1 X200.892 Y171.58 E20.89958
G1 X204.065 Y175.876 E20.9884
G1 X207.488 Y180.001 E21.07754
G1 X211.175 Y183.967 E21.1676
G1 X213.037 Y185.806 E21.21112
G1 X216.027 Y188.557 E21.27869
G1 X216.478 Y189.026 E21.28951
G1 X216.868 Y189.547 E21.30033
G1 X217.191 Y190.112 E21.31115
G1 X217.443 Y190.712 E21.32197
G1 X217.666 Y191.588 E21.33701
G1 X217.728 Y191.961 E21.34329
G1 X217.8 Y192.832 E21.35783
G1 X217.791 Y212.493 E21.68479
G1 X217.751 Y213.143 E21.69562
G1 X217.631 Y213.783 E21.70645
G1 X217.434 Y214.403 E21.71727
G1 X217.162 Y214.995 E21.7281
G1 X216.82 Y215.548 E21.73892
G1 X216.413 Y216.056 E21.74974
G1 X215.946 Y216.51 E21.76057
G1 X215.428 Y216.903 E21.77139
G1 X214.865 Y217.23 E21.78221
G1 X214.266 Y217.485 E21.79304
G1 X213.641 Y217.665 E21.80386
G1 X212.998 Y217.767 E21.81468
G1 X212.491 Y217.791 E21.82312
G1 X192.505 Y217.79 E22.15549
G1 X191.855 Y217.75 E22.16632
G1 X191.215 Y217.631 E22.17715
G1 X190.595 Y217.434 E22.18797
G1 X190.003 Y217.162 E22.1988
G1 X189.45 Y216.821 E22.20961
G1 X188.942 Y216.413 E22.22044
G1 X188.611 Y216.086 E22.22818
G1 X185.861 Y213.108 E22.29559
G1 X182.042 Y209.343 E22.38477
G1 X178.019 Y205.804 E22.47388
G1 X173.806 Y202.499 E22.56293
G1 X169.412 Y199.439 E22.65197
G1 X164.855 Y196.632 E22.74098
G1 X160.135 Y194.081 E22.8302
G1 X155.251 Y191.789 E22.91993
G1 X152.874 Y190.793 E22.96278
G1 X147.795 Y188.916 E23.05283
G1 X142.686 Y187.35 E23.1417
G1 X137.404 Y186.051 E23.23215
G1 X134.894 Y185.548 E23.27473
G1 X129.549 Y184.708 E23.3647
G1 X124.219 Y184.176 E23.45378
G1 X118.884 Y183.948 E23.54259
G1 X113.51 Y184.021 E23.63196
G1 X108.166 Y184.397 E23.72105
G1 X102.867 Y185.073 E23.80989
G1 X97.567 Y186.057 E23.89954
G1 X94.997 Y186.647 E23.94339
G1 X92.434 Y187.312 E23.98742
G1 X87.264 Y188.892 E24.07733
G1 X82.236 Y190.745 E24.16644
G1 X77.337 Y192.873 E24.25526
G1 X72.552 Y195.281 E24.34435
G1 X67.894 Y197.966 E24.43376
G1 X63.42 Y200.892 E24.52266
G1 X59.124 Y204.065 E24.61148
G1 X54.999 Y207.488 E24.70062
G1 X51.033 Y211.175 E24.79067
G1 X49.191 Y213.041 E24.83428
G1 X46.389 Y216.082 E24.90304
G1 X45.92 Y216.533 E24.91386
G1 X45.398 Y216.922 E24.92469
G1 X44.833 Y217.245 E24.93551
G1 X44.233 Y217.497 E24.94633
G1 X43.606 Y217.672 E24.95716
G1 X42.963 Y217.77 E24.96798
G1 X42.491 Y217.791 E24.97583
G1 X22.509 Y217.791 E25.30814
G1 X21.859 Y217.751 E25.31897
G1 X21.22 Y217.632 E25.32977
G1 X20.599 Y217.435 E25.34061
G1 X20.008 Y217.164 E25.35142
G1 X19.454 Y216.822 E25.36225
G1 X18.946 Y216.415 E25.37307
G1 X18.492 Y215.948 E25.3839
G1 X18.098 Y215.43 E25.39473
G1 X17.771 Y214.867 E25.40556
G1 X17.516 Y214.269 E25.41637
G1 X17.336 Y213.643 E25.4272
G1 X17.234 Y213 E25.43803
G1 X17.209 Y212.491 E25.4465
G1 X17.21 Y192.505 E25.77887
G1 X17.25 Y191.855 E25.7897
G1 X17.369 Y191.215 E25.80052
G1 X17.566 Y190.595 E25.81134
G1 X17.838 Y190.003 E25.82218
G1 X18.179 Y189.45 E25.83298
G1 X18.587 Y188.942 E25.84382
G1 X18.914 Y188.611 E25.85156
G1 X21.887 Y185.866 E25.91885
G1 X25.657 Y182.042 E26.00815
G1 X29.196 Y178.019 E26.09726
G1 X32.501 Y173.806 E26.1863
G1 X35.561 Y169.412 E26.27535
G1 X38.368 Y164.855 E26.36436
G1 X40.919 Y160.135 E26.45358
G1 X43.211 Y155.251 E26.5433
G1 X44.207 Y152.874 E26.58616
G1 X46.084 Y147.795 E26.67621
G1 X47.651 Y142.682 E26.76514
G1 X48.949 Y137.404 E26.85553
G1 X49.452 Y134.894 E26.8981
G1 X50.292 Y129.549 E26.98808
G1 X50.824 Y124.219 E27.07716
G1 X51.052 Y118.884 E27.16596
G1 X50.979 Y113.51 E27.25534
G1 X50.603 Y108.166 E27.34443
G1 X49.927 Y102.867 E27.43327
G1 X48.943 Y97.567 E27.52291
G1 X48.353 Y94.997 E27.56676
G1 X47.688 Y92.434 E27.6108
G1 X46.108 Y87.264 E27.7007
G1 X44.255 Y82.236 E27.78981
G1 X42.127 Y77.337 E27.87864
G1 X39.719 Y72.552 E27.96772
G1 X37.034 Y67.894 E28.05713
G1 X34.108 Y63.42 E28.14603
G1 X30.935 Y59.124 E28.23485
G1 X27.512 Y54.999 E28.32399
G1 X23.825 Y51.033 E28.41405
G1 X21.959 Y49.191 E28.45765
G1 X18.918 Y46.389 E28.52642
G1 X18.467 Y45.92 E28.53724
G1 X18.078 Y45.398 E28.54806
G1 X17.755 Y44.833 E28.55889
G1 X17.503 Y44.233 E28.56971
G1 X17.328 Y43.606 E28.58054
G1 X17.23 Y42.963 E28.59135
G1 X17.209 Y42.491 E28.59921
G1 X17.209 Y22.509 E28.93151
G1 X17.249 Y21.859 E28.94234
G1 X17.368 Y21.22 E28.95315
G1 X17.565 Y20.599 E28.96398
G1 X17.836 Y20.008 E28.9748
G1 X18.178 Y19.454 E28.98562
G1 X18.585 Y18.946 E28.99645
G1 X19.052 Y18.492 E29.00728
M204 S5000
M205 X30 Y30
G0 F3600 X19.247 Y18.588
M204 S500
M205 X20 Y20
G1 F900 X19.763 Y18.212 E29.0179
G1 X20.321 Y17.902 E29.02851
G1 X20.914 Y17.665 E29.03913
G1 X21.531 Y17.504 E29.04974
G1 X22.164 Y17.421 E29.06036
G1 X22.509 Y17.409 E29.0661
G1 X42.495 Y17.41 E29.39846
G1 X43.132 Y17.45 E29.40908
G1 X43.76 Y17.569 E29.41971
G1 X44.367 Y17.766 E29.43032
G1 X44.945 Y18.037 E29.44094
G1 X45.485 Y18.378 E29.45156
G1 X45.977 Y18.784 E29.46217
G1 X46.242 Y19.05 E29.46841
